!!!OTL: Des M&auml;dchens Lebensstufen (199), S. 434
!!!id: T0382
**kern
*clefG2
*k[]
*C:
{8e
8f
=1
8a
8g
4g
8e
8f
=2
8a
8g
4g}
=3
{8cc
8cc
=4
4.b
8a
8g
8e
=5
8a
8g
4g}
=6
{8e
8f
=7
8a
8g
4g
8e
8f
=8
8a
8g
4g}
=9
{8cc
8cc
=10
4.b
8a
8g
8e
=11
8a
8g
4g}
=12
{8e
8f
=13
4g
4ee
8dd
8cc
=14
4cc
4b}
=15
{8d
8e
=16
4f
4f
8f
8a
=17
4a
4a}
=18
{8e
8f
=19
4g
4dd
8a
8b
=20
4cc}
4r
==
*-
!!!minrhy: 8
!!!meters: 3/4 ]  ZZ[7
!!!cut1: Des M&auml;dchens Lebensstufen (199), S. 434
!!!cut2: 2. Melodie
!!!reg: Luxemburg
!!!trd: Singendes Volk, Esch-Alzette, 1937 posth.
!!!rhy1: XX  XXX_XX  XXX_
!!!rhy2: XX  X_.XXX  XXX_
!!!key: T0382  08  C 3/4 ]  ZZ[7
!!!mod: HEPTATONIK IONISCH]  AMBITUS[9
!!!kad: 555576+1
!!!akz: 66_76_66_76_5+1_46_5+1_
!!!fot: 'a__b__a__b__c__d__cw_
!!!for: 'a__b__a__b__c__c__c__
!!!fok: '~a_Vd_~a_Vd_^a_/__/__
!! PHRAS[AUFTAKTIG]
!!!fkt: Hochzeits-, Ehestandslied
!!!bem: Blascheid
!! THILL; Mathias
!! PR[59] 2K[0] 2G[0] 3K[5] 3G[2] 4A[2] 4Ü[0] 5A[3] 6K[0] 6G[2]
!! 7K[0] 7G[0] 8A[0] MEHR[0] SI[13] ABS[63] SR[0] SP[13]
!! ST[16] 2k[5] 2g[17] 3k[5] 3g[0] 4d[0] 4ü[0] 5d[2] 6k[0] 6g[0]
!! 7k[0] 7g[0] 8d[0] mehr[0] si[29] dm[-16] sr[22] sp[6]
!! 1F[16] 2F[77] 3F[8] 4F[0] LF[0] 2P[0] 3P[0] 4P[0] TRI[0] DF[3] AB[64]
!! TF[0] U3K[0] U3[0] U4[0] U4Ü[0] U5[0] U6K[0] U6[0] U7K[0] U7[0]
!! N1[8] N2K[0] N2[9] N3K[0] N3[16] N4[9] N4Ü[0] N5[50] N6K[0] N6[8]
!!!n7k: 0] N7[0] O1[0] O2K[0] O2[0] O3K[0] O3[0] HÖ[0
!!!RNB: symbol: &auml;      = a umlaut  (UTF-8: Å„)
